;START_OF_HEADER
;HEADER_VERSION:0.1
;FLAVOR:Griffin
;GENERATOR.NAME:Cura_SteamEngine
;GENERATOR.VERSION:4.13.1
;GENERATOR.BUILD_DATE:2022-01-28
;TARGET_MACHINE.NAME:Ultimaker S5
;EXTRUDER_TRAIN.0.INITIAL_TEMPERATURE:195
;EXTRUDER_TRAIN.0.MATERIAL.VOLUME_USED:260
;EXTRUDER_TRAIN.0.MATERIAL.GUID:506c9f0d-e3aa-4bd4-b2d2-23e2425b1aa9
;EXTRUDER_TRAIN.0.NOZZLE.DIAMETER:0.4
;EXTRUDER_TRAIN.0.NOZZLE.NAME:AA 0.4
;EXTRUDER_TRAIN.1.INITIAL_TEMPERATURE:100
;EXTRUDER_TRAIN.1.MATERIAL.VOLUME_USED:9050
;EXTRUDER_TRAIN.1.MATERIAL.GUID:506c9f0d-e3aa-4bd4-b2d2-23e2425b1aa9
;EXTRUDER_TRAIN.1.NOZZLE.DIAMETER:0.4
;EXTRUDER_TRAIN.1.NOZZLE.NAME:AA 0.4
;BUILD_PLATE.TYPE:glass
;BUILD_PLATE.INITIAL_TEMPERATURE:60
;BUILD_VOLUME.TEMPERATURE:28
;PRINT.TIME:15400
;PRINT.GROUPS:1
;PRINT.SIZE.MIN.X:115.23
;PRINT.SIZE.MIN.Y:92.23
;PRINT.SIZE.MIN.Z:0.2
;PRINT.SIZE.MAX.X:330
;PRINT.SIZE.MAX.Y:237
;PRINT.SIZE.MAX.Z:39.98
;END_OF_HEADER
;Generated with Cura_SteamEngine 4.13.1
T0
M82 ;absolute extrusion mode

G92 E0
M109 S195
G280 S1
G0 Z20.001
G1 F1500 E-6.5
;LAYER_COUNT:664
;LAYER:0
M107
M204 S625
M205 X50 Y50
G1 F600 Z2.2
G0 F1800 X190.954 Y143.547 Z2.2
M204 S500
M205 X20 Y20
;TYPE:SKIRT
G1 F600 Z0.2
G1 F1500 E0
G1 F600 X190.539 Y144.165 E0.0098
G1 X190.06 Y144.735 E0.01961
G1 X189.523 Y145.25 E0.0294
G1 X188.934 Y145.705 E0.0392
G1 X188.3 Y146.094 E0.049
G1 X187.627 Y146.413 E0.0588
G1 X186.924 Y146.658 E0.06861
G1 X186.199 Y146.826 E0.07841
G1 X185.46 Y146.915 E0.08821
G1 X185 Y146.93 E0.09427
G1 X145 Y146.93 E0.62096
G1 X144.257 Y146.89 E0.63076
G1 X143.522 Y146.771 E0.64056
G1 X142.804 Y146.573 E0.65037
G1 X142.112 Y146.3 E0.66017
G1 X141.453 Y145.954 E0.66997
G1 X140.835 Y145.539 E0.67977
G1 X140.265 Y145.06 E0.68957
G1 X139.75 Y144.523 E0.69937
G1 X139.295 Y143.934 E0.70917
G1 X138.906 Y143.3 E0.71896
G1 X138.587 Y142.627 E0.72877
G1 X138.342 Y141.924 E0.73857
G1 X138.174 Y141.199 E0.74837
G1 X138.085 Y140.46 E0.75817
G1 X138.07 Y140 E0.76423
G1 X138.07 Y100 E1.29093
G1 X138.11 Y99.257 E1.30073
G1 X138.229 Y98.522 E1.31053
G1 X138.427 Y97.804 E1.32034
G1 X138.7 Y97.112 E1.33013
G1 X139.046 Y96.453 E1.33993
G1 X139.461 Y95.835 E1.34974
G1 X139.94 Y95.265 E1.35954
G1 X140.477 Y94.75 E1.36934
G1 X141.066 Y94.295 E1.37914
G1 X141.7 Y93.906 E1.38893
G1 X142.373 Y93.587 E1.39874
G1 X143.076 Y93.342 E1.40854
G1 X143.801 Y93.174 E1.41834
G1 X144.54 Y93.085 E1.42814
G1 X145 Y93.07 E1.4342
G1 X185 Y93.07 E1.9609
G1 X185.743 Y93.11 E1.97069
G1 X186.478 Y93.229 E1.9805
G1 X187.196 Y93.427 E1.99031
G1 X187.888 Y93.7 E2.0001
G1 X188.547 Y94.046 E2.0099
G1 X189.165 Y94.461 E2.0197
G1 X189.735 Y94.94 E2.02951
G1 X190.25 Y95.477 E2.0393
G1 X190.705 Y96.066 E2.0491
G1 X191.094 Y96.7 E2.0589
G1 X191.413 Y97.373 E2.06871
G1 X191.658 Y98.076 E2.07851
G1 X191.826 Y98.801 E2.08831
G1 X191.915 Y99.54 E2.09811
G1 X191.93 Y100 E2.10417
G1 X191.93 Y140 E2.63086
G1 X191.89 Y140.743 E2.64066
G1 X191.771 Y141.478 E2.65047
G1 X191.573 Y142.196 E2.66027
G1 X191.3 Y142.888 E2.67007
G1 X190.954 Y143.547 E2.67987
M204 S625
M205 X50 Y50
G0 F1800 X190.535 Y143.427
M204 S500
M205 X20 Y20
G1 F600 X190.122 Y144.018 E2.68936
G1 X189.646 Y144.56 E2.69886
G1 X189.113 Y145.046 E2.70836
G1 X188.529 Y145.47 E2.71786
G1 X187.902 Y145.827 E2.72736
G1 X187.24 Y146.113 E2.73686
G1 X186.55 Y146.323 E2.74635
G1 X185.841 Y146.455 E2.75585
G1 X185 Y146.51 E2.76695
G1 X145 Y146.51 E3.29364
G1 X144.28 Y146.47 E3.30314
G1 X143.568 Y146.351 E3.31264
G1 X142.874 Y146.153 E3.32215
G1 X142.207 Y145.88 E3.33164
G1 X141.573 Y145.535 E3.34114
G1 X140.982 Y145.122 E3.35063
G1 X140.44 Y144.646 E3.36013
G1 X139.954 Y144.113 E3.36963
G1 X139.53 Y143.529 E3.37913
G1 X139.173 Y142.902 E3.38863
G1 X138.887 Y142.24 E3.39813
G1 X138.677 Y141.55 E3.40763
G1 X138.545 Y140.841 E3.41712
G1 X138.49 Y140 E3.42822
G1 X138.49 Y100 E3.95491
G1 X138.53 Y99.28 E3.96441
G1 X138.649 Y98.568 E3.97392
G1 X138.847 Y97.874 E3.98342
G1 X139.12 Y97.207 E3.99291
G1 X139.465 Y96.573 E4.00241
G1 X139.878 Y95.982 E4.01191
G1 X140.354 Y95.44 E4.0214
G1 X140.887 Y94.954 E4.0309
G1 X141.471 Y94.53 E4.0404
G1 X142.098 Y94.173 E4.0499
G1 X142.76 Y93.887 E4.0594
G1 X143.45 Y93.677 E4.0689
G1 X144.159 Y93.545 E4.07839
G1 X145 Y93.49 E4.08949
G1 X185 Y93.49 E4.61619
G1 X185.72 Y93.53 E4.62568
G1 X186.432 Y93.649 E4.63519
G1 X187.126 Y93.847 E4.64469
G1 X187.793 Y94.12 E4.65418
G1 X188.427 Y94.465 E4.66368
G1 X189.018 Y94.878 E4.67318
G1 X189.56 Y95.354 E4.68268
G1 X190.046 Y95.887 E4.69217
G1 X190.47 Y96.471 E4.70168
G1 X190.827 Y97.098 E4.71118
G1 X191.113 Y97.76 E4.72067
G1 X191.323 Y98.45 E4.73017
G1 X191.455 Y99.159 E4.73967
G1 X191.51 Y100 E4.75076
G1 X191.51 Y140 E5.27746
G1 X191.47 Y140.72 E5.28695
G1 X191.351 Y141.432 E5.29646
G1 X191.153 Y142.126 E5.30596
G1 X190.88 Y142.793 E5.31545
G1 X190.535 Y143.427 E5.32496
M204 S625
M205 X50 Y50
G0 F1800 X190.117 Y143.302
M204 S500
M205 X20 Y20
G1 F600 X189.705 Y143.866 E5.33415
G1 X189.232 Y144.379 E5.34334
G1 X188.704 Y144.834 E5.35252
G1 X188.127 Y145.226 E5.3617
G1 X187.508 Y145.549 E5.3709
G1 X186.857 Y145.8 E5.38008
G1 X186.181 Y145.974 E5.38927
G1 X185.49 Y146.07 E5.39846
G1 X185 Y146.09 E5.40492
G1 X145 Y146.09 E5.93161
G1 X144.303 Y146.05 E5.94081
G1 X143.616 Y145.931 E5.94999
G1 X142.947 Y145.733 E5.95917
G1 X142.304 Y145.461 E5.96837
G1 X141.698 Y145.117 E5.97754
G1 X141.134 Y144.705 E5.98674
G1 X140.621 Y144.232 E5.99593
G1 X140.166 Y143.704 E6.0051
G1 X139.774 Y143.127 E6.01429
G1 X139.451 Y142.508 E6.02348
G1 X139.2 Y141.857 E6.03267
G1 X139.026 Y141.181 E6.04186
G1 X138.93 Y140.49 E6.05105
G1 X138.91 Y140 E6.05751
G1 X138.91 Y100 E6.5842
G1 X138.95 Y99.303 E6.59339
G1 X139.069 Y98.616 E6.60257
G1 X139.267 Y97.947 E6.61176
G1 X139.539 Y97.304 E6.62095
G1 X139.883 Y96.698 E6.63013
G1 X140.295 Y96.134 E6.63933
G1 X140.768 Y95.621 E6.64851
G1 X141.296 Y95.166 E6.65769
G1 X141.873 Y94.774 E6.66688
G1 X142.492 Y94.451 E6.67607
G1 X143.143 Y94.2 E6.68526
G1 X143.819 Y94.026 E6.69445
G1 X144.51 Y93.93 E6.70363
G1 X145 Y93.91 E6.71009
G1 X185 Y93.91 E7.23679
G1 X185.697 Y93.95 E7.24598
G1 X186.384 Y94.069 E7.25516
G1 X187.053 Y94.267 E7.26435
G1 X187.696 Y94.539 E7.27354
G1 X188.302 Y94.883 E7.28272
G1 X188.866 Y95.295 E7.29191
G1 X189.379 Y95.768 E7.3011
G1 X189.834 Y96.296 E7.31028
G1 X190.226 Y96.873 E7.31946
G1 X190.549 Y97.492 E7.32866
G1 X190.8 Y98.143 E7.33784
G1 X190.974 Y98.819 E7.34704
G1 X191.07 Y99.51 E7.35622
G1 X191.09 Y100 E7.36268
G1 X191.09 Y140 E7.88937
G1 X191.05 Y140.697 E7.89857
G1 X190.931 Y141.384 E7.90775
G1 X190.733 Y142.053 E7.91693
G1 X190.461 Y142.696 E7.92613
G1 X190.117 Y143.302 E7.9353
M204 S625
M205 X50 Y50
G0 F1800 X189.699 Y143.173
M204 S500
M205 X20 Y20
G1 F600 X189.29 Y143.708 E7.94417
G1 X188.82 Y144.19 E7.95304
G1 X188.296 Y144.613 E7.9619
G1 X187.726 Y144.972 E7.97077
G1 X187.118 Y145.26 E7.97963
G1 X186.48 Y145.474 E7.98849
G1 X185.82 Y145.61 E7.99736
G1 X185 Y145.67 E8.00819
G1 X145 Y145.67 E8.53489
G1 X144.328 Y145.63 E8.54375
G1 X143.665 Y145.511 E8.55262
G1 X143.022 Y145.314 E8.56148
G1 X142.406 Y145.042 E8.57034
G1 X141.827 Y144.699 E8.5792
G1 X141.292 Y144.29 E8.58807
G1 X140.81 Y143.82 E8.59693
G1 X140.387 Y143.296 E8.6058
G1 X140.028 Y142.726 E8.61467
G1 X139.74 Y142.118 E8.62353
G1 X139.526 Y141.48 E8.63239
G1 X139.39 Y140.82 E8.64126
G1 X139.33 Y140 E8.65209
G1 X139.33 Y100 E9.17879
G1 X139.37 Y99.328 E9.18765
G1 X139.489 Y98.665 E9.19652
G1 X139.686 Y98.022 E9.20537
G1 X139.958 Y97.406 E9.21424
G1 X140.301 Y96.827 E9.2231
G1 X140.71 Y96.292 E9.23197
G1 X141.18 Y95.81 E9.24083
G1 X141.704 Y95.387 E9.2497
G1 X142.274 Y95.028 E9.25857
G1 X142.882 Y94.74 E9.26743
G1 X143.52 Y94.526 E9.27629
G1 X144.18 Y94.39 E9.28516
G1 X145 Y94.33 E9.29599
G1 X185 Y94.33 E9.82269
G1 X185.672 Y94.37 E9.83155
G1 X186.335 Y94.489 E9.84042
G1 X186.978 Y94.686 E9.84927
G1 X187.594 Y94.958 E9.85814
G1 X188.173 Y95.301 E9.867
G1 X188.708 Y95.71 E9.87587
G1 X189.19 Y96.18 E9.88473
G1 X189.613 Y96.704 E9.8936
G1 X189.972 Y97.274 E9.90247
G1 X190.26 Y97.882 E9.91133
G1 X190.474 Y98.52 E9.92019
G1 X190.61 Y99.18 E9.92906
G1 X190.67 Y100 E9.93989
G1 X190.67 Y140 E10.46659
G1 X190.63 Y140.672 E10.47545
G1 X190.511 Y141.335 E10.48432
G1 X190.314 Y141.978 E10.49317
G1 X190.042 Y142.594 E10.50204
G1 X189.699 Y143.173 E10.5109
M204 S625
M205 X50 Y50
G0 F1800 X189.623 Y142.489
M204 S500
M205 X20 Y20
G1 F600 X189.281 Y143.039 E10.51943
G1 X188.874 Y143.543 E10.52796
G1 X188.408 Y143.993 E10.53649
G1 X187.891 Y144.382 E10.54501
G1 X187.329 Y144.705 E10.55355
G1 X186.732 Y144.956 E10.56207
G1 X186.108 Y145.132 E10.57061
G1 X185.468 Y145.229 E10.57913
G1 X185 Y145.25 E10.5853
G1 X145 Y145.25 E11.112
G1 X144.353 Y145.21 E11.12053
G1 X143.717 Y145.091 E11.12905
G1 X143.1 Y144.894 E11.13758
G1 X142.511 Y144.623 E11.14612
G1 X141.961 Y144.281 E11.15465
G1 X141.457 Y143.874 E11.16318
G1 X141.007 Y143.408 E11.17171
G1 X140.618 Y142.891 E11.18023
G1 X140.295 Y142.329 E11.18876
G1 X140.044 Y141.732 E11.19729
G1 X139.868 Y141.108 E11.20582
G1 X139.771 Y140.468 E11.21435
G1 X139.75 Y140 E11.22052
G1 X139.75 Y100 E11.74721
G1 X139.79 Y99.353 E11.75575
G1 X139.909 Y98.717 E11.76427
G1 X140.106 Y98.1 E11.7728
G1 X140.377 Y97.511 E11.78133
G1 X140.719 Y96.961 E11.78986
G1 X141.126 Y96.457 E11.79839
G1 X141.592 Y96.007 E11.80692
G1 X142.109 Y95.618 E11.81544
G1 X142.671 Y95.295 E11.82398
G1 X143.268 Y95.044 E11.8325
G1 X143.892 Y94.868 E11.84104
G1 X144.532 Y94.771 E11.84956
G1 X145 Y94.75 E11.85573
G1 X185 Y94.75 E12.38243
G1 X185.647 Y94.79 E12.39096
G1 X186.283 Y94.909 E12.39948
G1 X186.9 Y95.106 E12.40801
G1 X187.489 Y95.377 E12.41655
G1 X188.039 Y95.719 E12.42508
G1 X188.543 Y96.126 E12.43361
G1 X188.993 Y96.592 E12.44214
G1 X189.382 Y97.109 E12.45066
G1 X189.705 Y97.671 E12.45919
G1 X189.956 Y98.268 E12.46772
G1 X190.132 Y98.892 E12.47626
G1 X190.229 Y99.532 E12.48478
G1 X190.25 Y100 E12.49095
G1 X190.25 Y140 E13.01764
G1 X190.21 Y140.647 E13.02618
G1 X190.091 Y141.283 E13.0347
G1 X189.894 Y141.9 E13.04323
G1 X189.623 Y142.489 E13.05176
M204 S625
M205 X50 Y50
G0 F1800 X189.204 Y142.378
M204 S500
M205 X20 Y20
G1 F600 X188.864 Y142.898 E13.05994
G1 X188.46 Y143.37 E13.06813
G1 X187.998 Y143.787 E13.07632
G1 X187.488 Y144.14 E13.08449
G1 X186.936 Y144.425 E13.09267
G1 X186.351 Y144.637 E13.10086
G1 X185.745 Y144.772 E13.10904
G1 X185 Y144.83 E13.11887
G1 X145 Y144.83 E13.64557
G1 X144.38 Y144.79 E13.65375
G1 X143.77 Y144.671 E13.66193
G1 X143.181 Y144.474 E13.67011
G1 X142.622 Y144.204 E13.67829
G1 X142.102 Y143.864 E13.68647
G1 X141.63 Y143.46 E13.69465
G1 X141.213 Y142.998 E13.70284
G1 X140.86 Y142.488 E13.71101
G1 X140.575 Y141.936 E13.71919
G1 X140.363 Y141.351 E13.72738
G1 X140.228 Y140.745 E13.73556
G1 X140.17 Y140 E13.7454
G1 X140.17 Y100 E14.27209
G1 X140.21 Y99.38 E14.28027
G1 X140.329 Y98.77 E14.28846
G1 X140.526 Y98.181 E14.29664
G1 X140.796 Y97.622 E14.30481
G1 X141.136 Y97.102 E14.31299
G1 X141.54 Y96.63 E14.32117
G1 X142.002 Y96.213 E14.32937
G1 X142.512 Y95.86 E14.33753
G1 X143.064 Y95.575 E14.34571
G1 X143.649 Y95.363 E14.35391
G1 X144.255 Y95.228 E14.36208
G1 X145 Y95.17 E14.37192
G1 X185 Y95.17 E14.89862
G1 X185.62 Y95.21 E14.9068
G1 X186.23 Y95.329 E14.91498
G1 X186.819 Y95.526 E14.92316
G1 X187.378 Y95.796 E14.93133
G1 X187.898 Y96.136 E14.93951
G1 X188.37 Y96.54 E14.94769
G1 X188.787 Y97.002 E14.95589
G1 X189.14 Y97.512 E14.96406
G1 X189.425 Y98.064 E14.97224
G1 X189.637 Y98.649 E14.98043
G1 X189.772 Y99.255 E14.9886
G1 X189.83 Y100 E14.99844
G1 X189.83 Y140 E15.52514
G1 X189.79 Y140.62 E15.53332
G1 X189.671 Y141.23 E15.5415
G1 X189.474 Y141.819 E15.54968
G1 X189.204 Y142.378 E15.55786
M204 S625
M205 X50 Y50
G0 F1800 X188.785 Y142.263
M204 S500
M205 X20 Y20
G1 F600 X188.447 Y142.751 E15.56567
G1 X188.046 Y143.189 E15.57349
G1 X187.59 Y143.569 E15.58131
G1 X187.087 Y143.885 E15.58913
G1 X186.547 Y144.13 E15.59694
G1 X185.978 Y144.3 E15.60476
G1 X185.392 Y144.393 E15.61257
G1 X185 Y144.41 E15.61774
G1 X145 Y144.41 E16.14443
G1 X144.408 Y144.37 E16.15224
G1 X143.826 Y144.251 E16.16007
G1 X143.266 Y144.055 E16.16788
G1 X142.737 Y143.785 E16.1757
G1 X142.249 Y143.447 E16.18352
G1 X141.811 Y143.046 E16.19133
G1 X141.431 Y142.59 E16.19915
G1 X141.115 Y142.087 E16.20697
G1 X140.87 Y141.547 E16.21478
G1 X140.7 Y140.978 E16.2226
G1 X140.607 Y140.392 E16.23041
G1 X140.59 Y140 E16.23558
G1 X140.59 Y100 E16.76227
G1 X140.63 Y99.408 E16.77009
G1 X140.749 Y98.826 E16.77791
G1 X140.945 Y98.266 E16.78572
G1 X141.215 Y97.737 E16.79354
G1 X141.553 Y97.249 E16.80136
G1 X141.954 Y96.811 E16.80918
G1 X142.41 Y96.431 E16.81699
G1 X142.913 Y96.115 E16.82482
G1 X143.453 Y95.87 E16.83262
G1 X144.022 Y95.7 E16.84044
G1 X144.608 Y95.607 E16.84826
G1 X145 Y95.59 E16.85342
G1 X185 Y95.59 E17.38012
G1 X185.592 Y95.63 E17.38793
G1 X186.174 Y95.749 E17.39575
G1 X186.734 Y95.945 E17.40356
G1 X187.263 Y96.215 E17.41138
G1 X187.751 Y96.553 E17.4192
G1 X188.189 Y96.954 E17.42702
G1 X188.569 Y97.41 E17.43484
G1 X188.885 Y97.913 E17.44266
G1 X189.13 Y98.453 E17.45047
G1 X189.3 Y99.022 E17.45829
G1 X189.393 Y99.608 E17.4661
G1 X189.41 Y100 E17.47126
G1 X189.41 Y140 E17.99796
G1 X189.37 Y140.592 E18.00577
G1 X189.251 Y141.174 E18.0136
G1 X189.055 Y141.734 E18.02141
G1 X188.785 Y142.263 E18.02923
M204 S625
M205 X50 Y50
G0 F1800 X188.367 Y142.141
M204 S500
M205 X20 Y20
G1 F600 X188.031 Y142.595 E18.03667
G1 X187.634 Y142.997 E18.0441
G1 X187.185 Y143.339 E18.05154
G1 X186.691 Y143.614 E18.05898
G1 X186.164 Y143.816 E18.06641
G1 X185.614 Y143.942 E18.07384
G1 X185 Y143.99 E18.08195
G1 X145 Y143.99 E18.60865
G1 X144.437 Y143.95 E18.61608
G1 X143.885 Y143.831 E18.62351
G1 X143.355 Y143.635 E18.63096
G1 X142.859 Y143.367 E18.63838
G1 X142.405 Y143.031 E18.64582
G1 X142.003 Y142.634 E18.65326
G1 X141.661 Y142.185 E18.66069
G1 X141.386 Y141.691 E18.66813
G1 X141.184 Y141.164 E18.67556
G1 X141.058 Y140.614 E18.68299
G1 X141.01 Y140 E18.6911
G1 X141.01 Y100 E19.2178
G1 X141.05 Y99.437 E19.22523
G1 X141.169 Y98.885 E19.23267
G1 X141.365 Y98.355 E19.24011
G1 X141.633 Y97.859 E19.24753
G1 X141.969 Y97.405 E19.25497
G1 X142.366 Y97.003 E19.26241
G1 X142.815 Y96.661 E19.26984
G1 X143.309 Y96.386 E19.27728
G1 X143.836 Y96.184 E19.28471
G1 X144.386 Y96.058 E19.29214
G1 X145 Y96.01 E19.30025
G1 X185 Y96.01 E19.82695
G1 X185.563 Y96.05 E19.83438
G1 X186.115 Y96.169 E19.84182
G1 X186.645 Y96.365 E19.84926
G1 X187.141 Y96.633 E19.85668
G1 X187.595 Y96.969 E19.86412
G1 X187.997 Y97.366 E19.87156
G1 X188.339 Y97.815 E19.87899
G1 X188.614 Y98.309 E19.88643
G1 X188.816 Y98.836 E19.89386
G1 X188.942 Y99.386 E19.90129
G1 X188.99 Y100 E19.9094
G1 X188.99 Y140 E20.4361
G1 X188.95 Y140.563 E20.44353
G1 X188.831 Y141.115 E20.45097
G1 X188.635 Y141.645 E20.45841
G1 X188.367 Y142.141 E20.46583
M204 S625
M205 X50 Y50
G0 F1800 X187.949 Y142.013
M204 S500
M205 X20 Y20
G1 F600 X187.615 Y142.43 E20.47287
G1 X187.224 Y142.793 E20.47989
G1 X186.782 Y143.093 E20.48692
G1 X186.301 Y143.325 E20.49396
G1 X185.79 Y143.481 E20.50099
G1 X185 Y143.57 E20.51146
G1 X145 Y143.57 E21.03816
G1 X144.467 Y143.53 E21.04519
G1 X143.947 Y143.411 E21.05222
G1 X143.45 Y143.216 E21.05925
G1 X142.987 Y142.949 E21.06628
G1 X142.57 Y142.615 E21.07332
G1 X142.207 Y142.224 E21.08034
G1 X141.907 Y141.782 E21.08738
G1 X141.675 Y141.301 E21.09441
G1 X141.519 Y140.79 E21.10145
G1 X141.43 Y140 E21.11191
G1 X141.43 Y100 E21.63861
G1 X141.47 Y99.467 E21.64565
G1 X141.589 Y98.947 E21.65267
G1 X141.784 Y98.45 E21.6597
G1 X142.051 Y97.987 E21.66674
G1 X142.385 Y97.57 E21.67377
G1 X142.776 Y97.207 E21.6808
